X:291
R:polska
S:Efter f. d. hemmansägaren Gardell vid Rodarve i Fardhem m. fl.
O:Gotland, Fardhem
M:3/4
L:1/16
K:C
c2cG E2EC G,2G,2|C2E2 c2e2 g4|a2ga g2eg f2ed|c2Bc dcBA G2AB|
c2cG E2EC G,2G,2|C2E2 c2e2 g4|a2fa g2eg f2ed|BcdB d4 c4::
egec egec d2g2|BdBG BdBG B2d2|AcAF AcAF A2c2|G2G^F G2G^F G4|
a2fa g2eg f2ed|BcdB d2G2 c4:|

